img/image/features3.svg

<svg width="70" height="76" viewBox="0 0 70 76" fill="none" xmlns="http://www.w3.org/2000/svg">
<g opacity="0.8">
<path d="M60.2548 5H9.74547C6.39803 5 3.68433 7.85965 3.68433 11.3871V64.6129C3.68433 68.1404 6.39803 71 9.74547 71H60.2548C63.6022 71 66.3159 68.1404 66.3159 64.6129V11.3871C66.3159 7.85965 63.6022 5 60.2548 5Z" stroke="#E5EEF7" stroke-width="2" stroke-miterlimit="10" stroke-linecap="round" stroke-linejoin="round"/>
<path d="M7.7251 18.8387V64.6129C7.7251 65.7887 8.62966 66.7419 9.74544 66.7419H60.2547C61.3705 66.7419 62.2751 65.7887 62.2751 64.6129V11.3871C62.2751 10.2113 61.3705 9.25806 60.2547 9.25806H9.74544C8.62966 9.25806 7.7251 10.2113 7.7251 11.3871V14.5806" stroke="#E5EEF7" stroke-width="2" stroke-miterlimit="10" stroke-linecap="round" stroke-linejoin="round"/>
<path d="M40.0511 38.1958C39.0231 38.86 37.818 39.2477 36.5436 39.2477C35.0582 39.2477 32.0946 39.2639 30.1134 39.2758V25.4569H36.5436C40.1814 25.4569 43.2549 28.615 43.2549 32.3523C43.2549 33.2573 43.0746 34.1285 42.7498 34.929M36.5436 21.1987H28.0931C26.9773 21.1987 26.0728 22.1519 26.0728 23.3277V54.2424C26.0728 54.5247 26.1792 54.7955 26.3686 54.9951C26.5581 55.1948 26.815 55.3069 27.0829 55.3069H29.1033C29.3712 55.3069 29.6281 55.1948 29.8176 54.9951C30.007 54.7955 30.1134 54.5247 30.1134 54.2424V43.5341C32.0884 43.5221 35.0574 43.5058 36.5436 43.5058C42.472 43.5058 47.2955 38.5024 47.2955 32.3523C47.2955 26.2022 42.472 21.1987 36.5436 21.1987Z" stroke="#E5EEF7" stroke-width="2" stroke-miterlimit="10" stroke-linecap="round" stroke-linejoin="round"/>
</g>
</svg>

<svg width="70" height="76" fill="none" xmlns="http://www.w3.org/2000/svg"><g opacity=".8" stroke="#E5EEF7" stroke-width="2" stroke-miterlimit="10" stroke-linecap="round" stroke-linejoin="round"><path d="M60.255 5H9.745c-3.347 0-6.06 2.86-6.06 6.387v53.226C3.684 68.14 6.397 71 9.744 71h50.51c3.347 0 6.06-2.86 6.06-6.387V11.387C66.316 7.86 63.603 5 60.256 5Z"/><path d="M7.725 18.839v45.774c0 1.176.905 2.129 2.02 2.129h50.51c1.115 0 2.02-.953 2.02-2.13V11.388c0-1.176-.904-2.129-2.02-2.129H9.745c-1.115 0-2.02.953-2.02 2.13v3.193"/><path d="M40.051 38.196a6.454 6.454 0 0 1-3.507 1.052c-1.486 0-4.45.016-6.43.028v-13.82h6.43c3.637 0 6.71 3.159 6.71 6.896 0 .905-.18 1.777-.504 2.577m-6.206-13.73h-8.45c-1.117 0-2.021.953-2.021 2.129v30.914c0 .283.106.553.296.753.19.2.446.312.714.312h2.02a.985.985 0 0 0 .715-.312c.189-.2.295-.47.295-.753V43.534c1.975-.012 4.944-.028 6.43-.028 5.929 0 10.752-5.004 10.752-11.154S42.472 21.2 36.544 21.2Z"/></g></svg>
